X: 1
T: the First Pint
C: by Colin Farrell
C: as taught by Katie McNally, Boston Harbor camp August 2017
C: arr. T. Traub 10-31-2002
M: 6/8
R: jig
K: D
A |:\
"D"dAB d2 A | "D"Bdf efd | "G"Bee ede | "A"faf g2 f |\
"D"dAB d2 A | "Bm"Bdf efd | "G"Bee edB | "A"AFE "D"D2A :|
|:\
"G"B3 BAF | "A"ABc "D"d2 A | "D"FAA ABA | "D"FAA AFA |\
"G"B2B BAF | "A"ABc "D"d2 A | "D"ddd dBA |1 "D"a-ag- gfd :| [2 "D"ddd "A"HdAB |]
